assets/White heart/Flat/white_heart_flat.svg

<svg width="32" height="32" viewBox="0 0 32 32" fill="none" xmlns="http://www.w3.org/2000/svg">
<path d="M26.2234 5.55265C23.7538 4.31788 21.4814 4.44634 19.6332 5.15868C18.0773 5.75834 16.8286 6.76785 15.9998 7.70911C15.171 6.76785 13.9223 5.75834 12.3664 5.15868C10.5182 4.44634 8.24575 4.31788 5.77619 5.55265C2.57271 7.15438 1.36432 9.98447 1.5634 12.9706C1.76035 15.925 3.32677 19.034 5.64624 21.3534C7.81665 23.5238 11.9959 27.4529 14.6085 29.5617C15.4223 30.2186 16.5706 30.2508 17.4113 29.6116C20.2666 27.4402 24.1499 23.5569 26.3394 21.3673L26.3533 21.3534C28.6728 19.034 30.2392 15.925 30.4362 12.9706C30.6353 9.98447 29.4269 7.15438 26.2234 5.55265Z" fill="#9B9B9B"/>
<path d="M16.4 8.7999C17.1036 7.8617 18.3654 6.71909 19.993 6.09181C21.6036 5.47106 23.5811 5.34952 25.7763 6.44712C28.5729 7.84537 29.6145 10.2653 29.4386 12.9041C29.2605 15.5748 27.8269 18.4658 25.6464 20.6463C23.4419 22.8509 19.6015 26.6898 16.8061 28.8156C16.3399 29.1702 15.7005 29.1579 15.2367 28.7836C12.6639 26.7069 8.51317 22.806 6.35351 20.6463C4.17297 18.4658 2.73939 15.5748 2.56135 12.9041C2.38542 10.2653 3.42704 7.84537 6.22356 6.44712C8.41877 5.34952 10.3963 5.47106 12.0069 6.09181C13.6345 6.71909 14.8963 7.8617 15.6 8.7999L16 9.33324L16.4 8.7999Z" fill="#F4F4F4"/>
<path d="M23.9947 5.79788C22.5073 5.45605 21.1547 5.64407 19.993 6.09181C18.3654 6.71909 17.1036 7.8617 16.4 8.7999L16 9.33322V11.549C17.129 9.16231 19.7491 6.0637 23.9947 5.79788Z" fill="#CFCFCF"/>
<path d="M10.7335 5.73128C9.39472 5.48641 7.87039 5.62371 6.22356 6.44712C3.42704 7.84537 2.38542 10.2653 2.56135 12.9041C2.73939 15.5748 4.17297 18.4658 6.35351 20.6464C8.51317 22.806 12.6639 26.7069 15.2367 28.7836C15.7005 29.1579 16.3399 29.1702 16.8061 28.8156C17.026 28.6484 17.2523 28.4706 17.4838 28.2838C14.6665 26.1373 10.9312 22.9845 8.8591 21.1324C3.9023 16.7019 2.25005 9.31776 8.8591 6.36413C9.49915 6.07808 10.125 5.87094 10.7335 5.73128Z" fill="#CFCFCF"/>
<ellipse cx="23.4771" cy="12.5936" rx="2.83554" ry="4.78125" transform="rotate(30 23.4771 12.5936)" fill="white"/>
</svg>

<svg xmlns="http://www.w3.org/2000/svg" width="32" height="32" fill="none"><path fill="#9B9B9B" d="M26.223 5.553c-2.47-1.235-4.742-1.107-6.59-.394-1.556.6-2.804 1.609-3.633 2.55-.829-.941-2.078-1.95-3.634-2.55-1.848-.713-4.12-.841-6.59.394-3.203 1.601-4.412 4.431-4.213 7.418.197 2.954 1.764 6.063 4.083 8.382 2.17 2.17 6.35 6.1 8.963 8.209.813.657 1.962.689 2.802.05 2.856-2.172 6.739-6.055 8.928-8.245l.014-.014c2.32-2.319 3.886-5.428 4.083-8.382.2-2.987-1.01-5.817-4.213-7.418Z"/><path fill="#F4F4F4" d="M16.4 8.8a8.47 8.47 0 0 1 3.593-2.708c1.61-.62 3.588-.742 5.783.355 2.797 1.398 3.838 3.818 3.663 6.457-.178 2.67-1.612 5.562-3.793 7.742-2.204 2.205-6.044 6.044-8.84 8.17a1.264 1.264 0 0 1-1.57-.032c-2.572-2.077-6.723-5.978-8.882-8.138-2.181-2.18-3.615-5.071-3.793-7.742-.176-2.639.866-5.059 3.663-6.457 2.195-1.097 4.172-.976 5.783-.355A8.472 8.472 0 0 1 15.6 8.8l.4.533.4-.533Z"/><path fill="#CFCFCF" d="M23.995 5.798a6.751 6.751 0 0 0-4.002.294A8.47 8.47 0 0 0 16.4 8.8l-.4.533v2.216c1.129-2.387 3.75-5.485 7.995-5.751ZM10.733 5.731c-1.338-.245-2.863-.107-4.51.716-2.796 1.398-3.838 3.818-3.662 6.457.178 2.67 1.612 5.562 3.793 7.742 2.16 2.16 6.31 6.06 8.883 8.138a1.264 1.264 0 0 0 1.57.032c.219-.168.445-.345.677-.532-2.818-2.147-6.553-5.3-8.625-7.152-4.957-4.43-6.609-11.814 0-14.768a10.16 10.16 0 0 1 1.874-.633Z"/><ellipse cx="23.477" cy="12.594" fill="#fff" rx="2.836" ry="4.781" transform="rotate(30 23.477 12.594)"/></svg>
